X: 11005
T: Drunken Sailor's, The
R: hornpipe
M: 4/4
K: Gdorian
D|G2 GF GABc|dcBA GFDE|F2FE FGAB|
cAFA dcBA|GD[BB,]D GABc|dcBA GFDE|F2gf dcBA|B2G2G3:|
|:A|B2BA Bcde|fcAB cAFG|A/G/F cF dFcF|A/G/F cF dFcA|
B2BA Bcde|fcAB cAFA|G2gf dcBA|B2G2G3:|
|:c|dgg^f gabg|agfe d3e|fcgc acgc|fcgc agfe|
d2g2 ~g2 bg & x4 gdx2|agfe d3c|dfeg fdcA|B2G2G3:|
|:F|DGBG DGBG|CFAF CFAF|DGBG DGBG|d^cd_e d=cBA|
GBdB GBdB|c2 AF CFAc|d/e/f eg fd cA|B2G2G3:|
|:z|gd g/a/b gd g/a/b|fc f/g/a fc f/g/a|gd g/a/b gd g/a/b|fdcA dBcA|
BGBd AFAc|BABd c=Bc_e|dfeg fdcA|B2G2G3:|

